packages/foundations/assets/icons/functional/images/logos/s_bahn_12_inverted.svg

<svg width="12" height="12" viewBox="0 0 12 12" fill="none" xmlns="http://www.w3.org/2000/svg">
<g clip-path="url(#clip0_2213_4663)">
<path fill-rule="evenodd" clip-rule="evenodd" d="M5.76712 2.62503C4.64332 2.62503 3.39172 3.33903 3.39172 4.66503C3.39172 5.84583 4.19932 6.27783 5.06152 6.55143C5.43052 6.66603 5.64352 6.71823 6.13972 6.86343C6.68932 7.03983 7.10092 7.26423 7.10092 7.75323C7.10092 8.14143 6.60652 8.50563 5.99212 8.50563C5.03812 8.50563 4.01392 7.92603 3.44392 7.06263V8.41263C4.02112 8.94783 5.07772 9.37503 5.99212 9.37503C7.63312 9.37503 8.60812 8.16483 8.60812 7.12503C8.60812 5.97963 7.86292 5.56143 7.03552 5.31303C6.70641 5.22499 6.3764 5.14038 6.04552 5.05923C5.37592 4.88703 4.83772 4.67523 4.83772 4.08363C4.83772 3.71163 5.16772 3.39363 5.74432 3.39363C6.70432 3.39363 7.63072 3.91983 8.21032 4.60323V3.47883C7.51839 2.92206 6.65523 2.62055 5.76712 2.62503Z" fill="#1A1C1F"/>
</g>
<defs>
<clipPath id="clip0_2213_4663">
<rect width="12" height="12" fill="white"/>
</clipPath>
</defs>
</svg>

<svg xmlns="http://www.w3.org/2000/svg" width="12" height="12" fill="none"><g clip-path="url(#a)"><path fill="#1A1C1F" fill-rule="evenodd" d="M5.767 2.625c-1.124 0-2.375.714-2.375 2.04 0 1.18.807 1.613 1.67 1.886.369.115.582.167 1.078.312.55.177.96.401.96.89 0 .388-.493.753-1.108.753-.954 0-1.978-.58-2.548-1.443v1.35c.577.535 1.634.962 2.548.962 1.641 0 2.616-1.21 2.616-2.25 0-1.145-.745-1.564-1.572-1.812q-.495-.132-.99-.254c-.67-.172-1.208-.384-1.208-.975 0-.372.33-.69.906-.69.96 0 1.887.526 2.466 1.21V3.478a3.87 3.87 0 0 0-2.443-.854" clip-rule="evenodd"/></g><defs><clipPath id="a"><path fill="#fff" d="M0 0h12v12H0z"/></clipPath></defs></svg>
